Numix/16/status/indicator-keyboard-Az-1.svg

<?xml version="1.0" encoding="UTF-8" standalone="no"?>
<svg
   xmlns:dc="http://purl.org/dc/elements/1.1/"
   xmlns:cc="http://creativecommons.org/ns#"
   xmlns:rdf="http://www.w3.org/1999/02/22-rdf-syntax-ns#"
   xmlns:svg="http://www.w3.org/2000/svg"
   xmlns="http://www.w3.org/2000/svg"
   xmlns:sodipodi="http://sodipodi.sourceforge.net/DTD/sodipodi-0.dtd"
   xmlns:inkscape="http://www.inkscape.org/namespaces/inkscape"
   viewBox="0 0 16 16"
   id="svg2"
   version="1.1"
   inkscape:version="0.91 r13725"
   sodipodi:docname="indicator-keyboard-Az-1.svg">
  <metadata
     id="metadata14">
    <rdf:RDF>
      <cc:Work
         rdf:about="">
        <dc:format>image/svg+xml</dc:format>
        <dc:type
           rdf:resource="http://purl.org/dc/dcmitype/StillImage" />
      </cc:Work>
    </rdf:RDF>
  </metadata>
  <defs
     id="defs12" />
  <sodipodi:namedview
     pagecolor="#ffffff"
     bordercolor="#666666"
     borderopacity="1"
     objecttolerance="10"
     gridtolerance="10"
     guidetolerance="10"
     inkscape:pageopacity="0"
     inkscape:pageshadow="2"
     inkscape:window-width="640"
     inkscape:window-height="480"
     id="namedview10"
     showgrid="false"
     inkscape:zoom="14.75"
     inkscape:cx="8"
     inkscape:cy="8"
     inkscape:window-x="65"
     inkscape:window-y="24"
     inkscape:window-maximized="0"
     inkscape:current-layer="svg2" />
  <path
     style="fill:#ececec;fill-opacity:1"
     d="M 1.5996094 0 C 0.71320937 2.9605947e-16 0 0.71320937 0 1.5996094 L 0 14.400391 C 2.9605947e-16 15.286791 0.71320937 16 1.5996094 16 L 14.400391 16 C 15.286791 16 16 15.286791 16 14.400391 L 16 1.5996094 C 16 0.71320937 15.286791 0 14.400391 0 L 1.5996094 0 z M 4.53125 4.859375 L 5.0722656 4.859375 C 5.2942656 5.321375 5.5031719 5.7821406 5.7011719 6.2441406 C 5.8991719 6.7061406 6.0969219 7.1893594 6.2949219 7.6933594 C 6.4989219 8.1913594 6.7060156 8.7231094 6.9160156 9.2871094 C 7.1260156 9.8451096 7.3536094 10.447703 7.5996094 11.095703 L 6.9257812 11.095703 C 6.8117813 10.789703 6.7035625 10.496844 6.6015625 10.214844 C 6.4995625 9.9328435 6.4006875 9.6567188 6.3046875 9.3867188 L 3.2714844 9.3867188 C 3.1694844 9.6567187 3.0668437 9.9328436 2.9648438 10.214844 C 2.8628437 10.496844 2.7583906 10.789703 2.6503906 11.095703 L 2.0117188 11.095703 C 2.2517187 10.447703 2.4755469 9.8451096 2.6855469 9.2871094 C 2.8955469 8.7231094 3.1008281 8.1913594 3.2988281 7.6933594 C 3.5028281 7.1893594 3.7043438 6.7061406 3.9023438 6.2441406 C 4.1003437 5.7821406 4.30925 5.321375 4.53125 4.859375 z M 4.7832031 5.5605469 C 4.5552031 6.0765469 4.3331875 6.6027187 4.1171875 7.1367188 C 3.9071875 7.6707187 3.6889375 8.2452813 3.4609375 8.8632812 L 6.1152344 8.8632812 C 5.8872344 8.2452813 5.6652187 7.6707187 5.4492188 7.1367188 C 5.2332188 6.6027188 5.0112031 6.0765469 4.7832031 5.5605469 z M 8.3046875 6.4433594 L 11.490234 6.4433594 L 11.490234 6.9199219 C 11.352234 7.0759219 11.173172 7.2923594 10.951172 7.5683594 C 10.729172 7.8443594 10.492234 8.1521406 10.240234 8.4941406 C 9.9882342 8.8301406 9.7381875 9.1846406 9.4921875 9.5566406 C 9.2461875 9.9226408 9.0317031 10.271563 8.8457031 10.601562 L 11.572266 10.601562 L 11.572266 11.095703 L 8.1699219 11.095703 L 8.1699219 10.673828 C 8.3259219 10.379828 8.5180938 10.055172 8.7460938 9.7011719 C 8.9800938 9.3471719 9.2188437 8.99825 9.4648438 8.65625 C 9.7108438 8.30825 9.9515467 7.9855469 10.185547 7.6855469 C 10.419547 7.3795469 10.617297 7.1295 10.779297 6.9375 L 8.3046875 6.9375 L 8.3046875 6.4433594 z M 13.71875 8.8417969 L 13.988281 8.8417969 L 13.988281 12.896484 L 13.607422 12.896484 L 13.607422 9.421875 C 13.564522 9.468675 13.509653 9.5157063 13.439453 9.5664062 C 13.373153 9.6171063 13.296738 9.66805 13.210938 9.71875 C 13.125138 9.76555 13.035006 9.812575 12.941406 9.859375 C 12.847806 9.902275 12.753756 9.9375437 12.660156 9.9648438 L 12.548828 9.671875 C 12.782828 9.5899751 12.992481 9.4880813 13.175781 9.3632812 C 13.359081 9.2345813 13.53935 9.0601969 13.71875 8.8417969 z "
     id="path4" />
</svg>

<svg xmlns="http://www.w3.org/2000/svg" viewBox="0 0 16 16">
 <path d="m 1.6 0 c -0.886 0 -1.6 0.713 -1.6 1.6 l 0 12.801 c 0 0.886 0.713 1.6 1.6 1.6 l 12.801 0 c 0.886 0 1.6 -0.713 1.6 -1.6 l 0 -12.801 c 0 -0.886 -0.713 -1.6 -1.6 -1.6 l -12.801 0 z m 2.932 4.859 l 0.541 0 c 0.222 0.462 0.431 0.923 0.629 1.385 c 0.198 0.462 0.396 0.945 0.594 1.449 c 0.204 0.498 0.411 1.03 0.621 1.594 c 0.21 0.558 0.438 1.161 0.684 1.809 l -0.674 0 c -0.114 -0.306 -0.222 -0.599 -0.324 -0.881 c -0.102 -0.282 -0.201 -0.558 -0.297 -0.828 l -3.033 0 c -0.102 0.27 -0.205 0.546 -0.307 0.828 c -0.102 0.282 -0.206 0.575 -0.314 0.881 l -0.639 0 c 0.24 -0.648 0.464 -1.251 0.674 -1.809 c 0.21 -0.564 0.415 -1.096 0.613 -1.594 c 0.204 -0.504 0.406 -0.987 0.604 -1.449 c 0.198 -0.462 0.407 -0.923 0.629 -1.385 z m 0.252 0.701 c -0.228 0.516 -0.45 1.042 -0.666 1.576 c -0.21 0.534 -0.428 1.109 -0.656 1.727 l 2.654 0 c -0.228 -0.618 -0.45 -1.193 -0.666 -1.727 c -0.216 -0.534 -0.438 -1.06 -0.666 -1.576 z m 3.521 0.883 l 3.186 0 l 0 0.477 c -0.138 0.156 -0.317 0.372 -0.539 0.648 c -0.222 0.276 -0.459 0.584 -0.711 0.926 c -0.252 0.336 -0.502 0.691 -0.748 1.063 c -0.246 0.366 -0.46 0.715 -0.646 1.045 l 2.727 0 l 0 0.494 l -3.402 0 l 0 -0.422 c 0.156 -0.294 0.348 -0.619 0.576 -0.973 c 0.234 -0.354 0.473 -0.703 0.719 -1.045 c 0.246 -0.348 0.487 -0.671 0.721 -0.971 c 0.234 -0.306 0.432 -0.556 0.594 -0.748 l -2.475 0 l 0 -0.494 z m 5.414 2.398 l 0.27 0 l 0 4.055 l -0.381 0 l 0 -3.475 c -0.043 0.047 -0.098 0.094 -0.168 0.145 c -0.066 0.051 -0.143 0.102 -0.229 0.152 c -0.086 0.047 -0.176 0.094 -0.27 0.141 c -0.094 0.043 -0.188 0.078 -0.281 0.105 l -0.111 -0.293 c 0.234 -0.082 0.444 -0.184 0.627 -0.309 c 0.183 -0.129 0.364 -0.303 0.543 -0.521 z" style="fill:#ececec;fill-opacity:1"/>
</svg>
